symbols/web/baby_changing_station/materialsymbolsoutlined/baby_changing_station_wght300_24px.svg

<svg xmlns="http://www.w3.org/2000/svg" height="24" width="24"><path d="M3.25 21.75V12.3l1.575-4.6q.225-.75.95-1.05.725-.3 1.425 0l4.2 1.85h2.35V10h-2.7l-2.9-1.25-1.4 4.2v8.8ZM7.9 5.2q-.75 0-1.3-.55t-.55-1.3q0-.775.55-1.313.55-.537 1.3-.537.775 0 1.313.537.537.538.537 1.313 0 .75-.537 1.3-.538.55-1.313.55ZM9.25 18v-1.5h11.5V18Zm9.85-2.5q-.55 0-.95-.387-.4-.388-.4-.963 0-.55.388-.95.387-.4.962-.4.55 0 .95.4.4.4.4.95 0 .55-.4.95-.4.4-.95.4Zm-6.05 0q-.75 0-1.275-.525-.525-.525-.525-1.275v-1.2h-2V11h2.6q.375 0 .638.262.262.263.262.638V13h2.5v-2h1.5v2.7q0 .75-.525 1.275-.525.525-1.275.525Z"/></svg>

<svg xmlns="http://www.w3.org/2000/svg" height="24" width="24"><path d="M3.25 21.75V12.3L4.825 7.7Q5.05 6.95 5.775 6.65Q6.5 6.35 7.2 6.65L11.4 8.5H13.75V10H11.05L8.15 8.75L6.75 12.95V21.75ZM7.9 5.2Q7.15 5.2 6.6 4.65Q6.05 4.1 6.05 3.35Q6.05 2.575 6.6 2.037Q7.15 1.5 7.9 1.5Q8.675 1.5 9.213 2.037Q9.75 2.575 9.75 3.35Q9.75 4.1 9.213 4.65Q8.675 5.2 7.9 5.2ZM9.25 18V16.5H20.75V18ZM19.1 15.5Q18.55 15.5 18.15 15.113Q17.75 14.725 17.75 14.15Q17.75 13.6 18.138 13.2Q18.525 12.8 19.1 12.8Q19.65 12.8 20.05 13.2Q20.45 13.6 20.45 14.15Q20.45 14.7 20.05 15.1Q19.65 15.5 19.1 15.5ZM13.05 15.5Q12.3 15.5 11.775 14.975Q11.25 14.45 11.25 13.7V12.5H9.25V11H11.85Q12.225 11 12.488 11.262Q12.75 11.525 12.75 11.9V13H15.25V11H16.75V13.7Q16.75 14.45 16.225 14.975Q15.7 15.5 14.95 15.5Z"/></svg>
